X: 44
T:Via Gellia
% Nottingham Music Database
S:Mick Peat
M:6/8
L:1/8
P: ABCB
K:G
P:A
D\
P:B
|:"G"Gz2"D"Az2|"G"B3 -B2d|"G"BAG "D"A2d|"G"BAG "D"A2D|"G"Gz2"D"Az2|\
"G"B3 -"Em"B2d|"Am"BAG "D"A2F|"G"G3 z2D :|
P:C
"D"Fz2"A"Gz2|"D"A3 -A2d|"A"c2e "E"B2d|"A"cde A2e|"D"Fz2"A"Gz2|\
"D"A3 -A2d|"Em"Beg "A"a2A|"D"d3 D2D|<end>
<start>
